X: 26452
T: Metcalfe Fair
R: reel
M: 4/4
K: Dmajor
ag|:f2 df e2 ce|dFAd fgaf|b2 gb a2 fa|gfef gAag|
f2 df e2 ce|dFAd fgaf|gfeg fedf|1 egec d2 ag:|2 egec dA=cd||
K:G
|:B3 c BGDB,|G,B,DG BDGB|cGEc dGBd|
bagb afdc|Bdgd ecea|fdbg ecAF|
[1 GBd^d efge|dBAF GDB,D:|2 GBd^d efgb|afdf g^ga=g||

